frontend/Idle/src/assets/images/arrowRight.svg

<svg width="12" height="12" viewBox="0 0 12 12" fill="none" xmlns="https://www.w3.org/2000/svg">
<path d="M3.67654 9.72385C3.5537 9.60101 3.54253 9.40879 3.64304 9.27333L3.67654 9.23452L6.66113 6.24978L3.67654 3.26503C3.5537 3.14219 3.54253 2.94996 3.64304 2.81451L3.67654 2.7757C3.79938 2.65286 3.9916 2.64169 4.12706 2.7422L4.16587 2.7757L7.39528 6.00511C7.51812 6.12795 7.52929 6.32018 7.42878 6.45563L7.39528 6.49444L4.16587 9.72385C4.03074 9.85898 3.81166 9.85898 3.67654 9.72385Z" fill="#222222"/>
</svg>

<svg width="12" height="12" fill="none" xmlns="https://www.w3.org/2000/svg"><path d="M3.677 9.724a.346.346 0 0 1-.034-.45l.034-.04L6.66 6.25 3.677 3.265a.346.346 0 0 1-.034-.45l.034-.04a.346.346 0 0 1 .45-.033l.039.034 3.23 3.23a.346.346 0 0 1 .033.45l-.034.038-3.23 3.23a.346.346 0 0 1-.488 0z" fill="#222"/></svg>
